X:1
T:Title
%%score { ( 1 3 5 ) | ( 2 4 ) }
L:1/8
M:4/4
K:Eb
V:1 treble nm="Grand Piano"
V:3 treble 
V:5 treble 
V:2 bass 
V:4 bass 
V:1
 z4 z2[Q:1/4=100] B,2 | G3 G F2 E2 | B2 B2 B2 =B2 | [Ec]3 [Ec] [CE]2 [=B,EF]2 |[M:3/4] [B,EG]6 | %5
[M:1/4] [B,EG]2 |[M:4/4] [=B,FG]3 [B,FG] [Ge]2 [Fd]2 | [Fd]2 [Ec]2 [EG]2 [Ge]2 | d3 F d2 c2 | %9
 B4- [AB]4 | z BBB z BBB | z BB[DAB] z [AB][DAB][AB] | z [EGB][EGB][_DEGB] z [DEGB][DEGB][DEGB] | %13
 z GGG z [FA][FA][FA] | [Bd]4 z4 | [Ac]4 [GB]4 | [Fd]4 z2 [Fd]2 |[M:9/8] z2 A G F2 _G3 | %18
[M:4/4] z BBB z BBB | z BB[DAB] z [AB][DAB][AB] | z [EGB][EGB][_DEGB] z [DEB][DEGB][DEGB] | %21
 z [=EG][EG][EG] .[CFA]2 [FA][FA] | [_Gc]2 z2 z4 | [=Ec]4 [_EG]2 [EF]2 | %24
 [A,DF][A,DG][DA][A,C] [B,DG]3 [A,DF] |[M:7/8] E-E-E- E- E3 |] %26
V:2
 z4 z2 [E,G,]2 | [E,B,E]3 [E,B,E] [E,A,D]2 [E,G,]2 | [F,A,C]2 [F,A,D]2 [G,B,E]2 [E,G,E]2 | %3
 [A,,A,]3 [A,,A,] A,,2 B,,2 |[M:3/4] E,6 |[M:1/4] E,2 |[M:4/4] D,3 D, [G,=B,]2 [G,B,]2 | %7
 [C,C]2 [C,C]2 [C,C]2 [C,G,]2 | [F,B,F]3 [F,B,D] [F,=A,F]2 [F,E]2 | [B,,F,]4[K:treble] [B,D]4 | %10
 z [EG][CEG][B,EG] z [DG][DG][DG] | z [DA][A,DA][K:bass]=E, z D z D | z _DDF, G,E,F,G, | %13
 z[K:treble] [_D=E][DE][DE] z CCC | B,,A,A,[A,B,D] B,,[A,B,D][A,B,D][A,B,D] | E,A,A,A, E,G,G,G, | %16
 C,F,F,[F,=A,E] F,,[F,A,] .[F,A,]>E |[M:9/8] B,,F,C B, A,2- A,3 | %18
[M:4/4] z[K:treble] [EG][CEG][B,EG] z [DG][DG][DG] | z [DA][A,DA][K:bass]=E, z D z D | %20
 z _DDF, G,E,F,G, | z[K:treble] _DDD z2 CC | A,,=A,[A,CE]A, B,,G,E,_D, | C,G,G,G, F,,F,F,F, | %24
 B,,B,,[B,,F,]B,, B,,3 B,, |[M:7/8] z2 A,2 G,3 |] %26
V:3
 x8 | x8 | x8 | x8 |[M:3/4] x6 |[M:1/4] x2 |[M:4/4] x8 | x8 | x8 | D4 z4 | B,2 z2 G,4 | B,2 z2 z4 | %12
 x8 | B,4 z4 | z [B,D][B,D][Ac] [ce][Bd][Ac][Bd] | z [CE][CE][CE] z [B,E][B,E][B,E] | %16
 z =A,A,c [Ge][Fd] z z/ c/ |[M:9/8] [DB]8- [DB] |[M:4/4] B,2 z2 G,4 | B,2 z2 z4 | x8 | x8 | %22
 z [CE][_Gd][CEGc] [=GB]3 [F=B] | z [B,C][B,C][B,C=EB] z =A,A,A, | x8 |[M:7/8] G,2 C2 B,3 |] %26
V:4
 x8 | x8 | x8 | x8 |[M:3/4] x6 |[M:1/4] x2 |[M:4/4] x8 | x8 | x8 | x4[K:treble] x4 | x8 | %11
 z4[K:bass] G,2 F,2 | E,4 z4 | z4[K:treble] A,4 | x8 | x8 | z4 z2 z F, |[M:9/8] x9 | %18
[M:4/4] x[K:treble] x7 | z4[K:bass] G,2 F,2 | E,4 z4 | B,4[K:treble] A,4 | x8 | x8 | x8 | %25
[M:7/8] E,-E,-E,- E,- E,3 |] %26
V:5
 x8 | x8 | x8 | x8 |[M:3/4] x6 |[M:1/4] x2 |[M:4/4] x8 | x8 | x8 | x8 | x8 | x8 | x8 | x8 | x8 | %15
 x8 | z4 z2 z =A, |[M:9/8] x9 |[M:4/4] x8 | x8 | x8 | x8 | x8 | x8 | x8 |[M:7/8] x7 |] %26

